src/apps/symbolic/org.gtk.Demo4-symbolic.svg

<svg width="16" height="16.031" version="1.1" xmlns="http://www.w3.org/2000/svg">
 <path d="m8.0078-0.011719-5.9629 3.4414 5.9629 3.4434 5.9629-3.4434-5.9629-3.4414zm0 1.1543 3.9629 2.2871-3.9629 2.2871-3.9629-2.2871 3.9629-2.2871z" fill="#363636" opacity=".65" style="paint-order:normal"/>
 <path d="m0.99023 4.959 0.0078125 6.9727 5.9922 3.4199v-6.9277l-6-3.4648zm1.002 1.7344 3.998 2.3066v4.6309l-3.9941-2.2793-0.0039063-4.6582z" fill="#363636" style="paint-order:normal"/>
 <path d="m14.99 4.959-6 3.4648v6.9277l5.9922-3.4199 0.007812-6.9727zm-1.002 1.7344-0.005859 4.6582-3.9922 2.2793v-4.6309l3.998-2.3066z" fill="#363636" opacity=".35" style="paint-order:normal"/>
</svg>

<svg xmlns="http://www.w3.org/2000/svg" width="16" height="16.031">
    <path fill="#050505" d="M8.008-.012 2.045 3.43l5.963 3.443L13.97 3.43 8.008-.012zm0 1.155L11.97 3.43 8.008 5.717 4.045 3.43l3.963-2.287z" opacity=".65" style="paint-order:normal"/>
    <path fill="#050505" d="m.99 4.959.008 6.973 5.992 3.42V8.424l-6-3.465zm1.002 1.734L5.99 9v4.63l-3.994-2.278-.004-4.659z" opacity=".7" style="paint-order:normal"/>
    <path fill="#050505" d="m14.99 4.959-6 3.465v6.928l5.992-3.42.008-6.973zm-1.002 1.734-.006 4.659L9.99 13.63V9l3.998-2.307z" opacity=".35" style="paint-order:normal"/>
</svg>
